T: Looby Light
M: 9/8
L: 1/8
K: Gmaj
|: deg d2 B d3- d3 | deg d2 B A3- A3 | deg d2 B d2 B d2 e |[1 d2 d cBA G3- G3 :|[2 d2 c B2 A G3- G3 ||G2 G d2 B d2 e ABc |[1 d2 d cBA G3- G3 :|[2 d2 c cBA G3- G3 ||
